X:1
T:Pop Pluck
M:4/4
L:1/16
Q:1/4=100
K:G
%%MIDI program 25
|: G2B2d2B2 G2B2d2B2 | G2B2d2B2 G2B2d2B2 |
C2E2G2E2 C2E2G2E2 | C2E2G2E2 C2E2G2E2 |
D2F2A2F2 D2F2A2F2 | D2F2A2F2 D2F2A2F2 |
G2B2d2B2 G2B2d2B2 | G2B2d2B2 D2F2A2F2 :|
